projects/flag-game/flags/Papua New Guinea.svg

<svg viewBox="0 0 1000 750" xmlns="http://www.w3.org/2000/svg"><path d="m0 0h1000v750h-1000z"/><g fill-rule="evenodd"><path d="m0 0h1000v750zm0 0" fill="#ce1126"/><path d="m619.125 217.914062c-7.390625 9.535157-24.871094-9.605468-45.800781-10.035156-20.9375-.441406-35.777344 20.058594-41.878907 27.042969-6.105468 6.980469-25.734374 43.617187-25.300781 47.539063.4375 3.933593 12.214844-10.902344 16.578125-13.515626.4375 5.230469-4.800781 11.335938-3.492187 13.085938 1.308593 1.742188 15.265625-10.472656 20.066406-10.902344 1.3125 3.488282-2.621094 6.972656-1.308594 12.210938 1.742188 1.742187 9.59375-8.722656 14.828125-10.902344.878906 3.921875-4.792968 11.335938-1.742187 16.136719 2.179687.433593 15.265625-14.835938 19.628906-16.578125 4.363281-1.75-2.179687 14.398437 0 15.707031 3.921875-2.621094 16.136719-16.574219 20.066406-18.324219 3.925781-1.742187-.4375 17.886719 1.304688 17.886719 4.800781-3.492187 17.015625-20.070313 18.324219-22.683594 1.304687-2.621093-1.308594 25.304688 12.210937 40.128907 13.523437 14.835937 34.023437 31.84375 36.203125 31.84375 2.621094-4.800782-.871094-14.832032 1.308594-14.394532 6.105468 6.542969 17.449218 16.136719 20.070312 16.136719 2.613282 0-1.75-10.464844 1.742188-10.464844 6.984375 6.542969 27.042968 32.277344 66.300781 44.050781-2.613281-7.414062-8.285156-13.957031-8.722656-17.449218 2.621093.441406 11.78125 4.804687 13.523437 4.363281 1.742188-.429687-19.199218-26.171875-17.886718-29.65625 4.800781-.4375 6.984374 2.613281 8.722656.433594-2.179688-3.492188-20.5-23.992188-20.5-28.785157 0-4.800781 5.671875.871094 7.414062 0 1.75-.878906-6.972656-19.199218-5.230468-21.378906 1.742187-2.179687 20.9375 11.777344 25.730468 11.777344 4.800782 0 1.3125-17.011719 3.492188-17.878906 2.179687-.878906 18.328125 9.152344 21.808594 9.152344 3.492187 0 3.054687-7.414063 4.363281-6.542969 1.308593.878906 39.257812 38.828125 26.171875 83.320312-13.085938 31.84375-39.257813 48.851563-77.644532 34.894531 2.179688 3.488282 22.6875 20.5 44.929688 14.394532 22.25-6.109375 49.292969-23.558594 46.238281-67.175782-3.050781-43.613281-17.445312-49.726562-19.628906-56.269531-2.179687-6.542969 3.492187 1.742188 8.285156 3.492188 4.804688 1.742187-.871093-9.164063-2.179687-13.957031-1.3125-4.800782 14.394531 10.027343 18.320312 11.335937 3.929688 1.3125-9.15625-35.765625-13.085937-38.386719-3.925781-2.613281 3.929687.878906 6.539062 1.75 2.621094.871094-23.988281-40.570312-29.652343-40.570312-5.671876 0 4.792968-2.179688 7.84375-2.179688 3.058593 0-30.527344-27.042968-36.195313-27.042968-5.675781 0 12.207031-6.980469 13.957031-7.421876 3.050782.441407-38.828125-22.238281-76.335937.441407-2.183594-1.742188 17.667969-15.488281 18.316406-21.371094.222656-1.53125-6.539063-4.800781-6.980469-6.542969-.429687-1.75 10.472656-6.984375 10.90625-10.902344-2.613281-3.492187-7.417968-2.183593-10.027344-3.054687-.660156-3.273437 9.15625-11.34375 8.285157-14.835937-.652344-1.960938-7.855469-2.609376-9.59375-1.300782-1.75 1.300782 4.578125-9.164062 3.488281-12.214844-.871094-1.3125-4.359375-.441406-7.851562.429688-2.183594-.429688 11.335937-19.191406 8.722656-21.808594-2.621094-2.613281-39.257813 19.195313-52.785156 43.617188-13.515626 24.433594-3.050782 44.0625-4.789063 52.34375-1.75 8.296875-3.933594 16.578125-9.605469 16.578125-5.664062 0-18.75-8.722657-23.113281-13.085938-4.359375-4.359375-5.238281-7.414062-11.34375-9.164062-6.101563-1.742188-20.066406 3.492187-25.300781 3.933593-5.230469.429688-25.730469-3.933593-27.042969-2.621093-1.308594 1.308593 20.070313 9.164062 24.863281 11.777343 4.800782 2.617188 5.238282 6.109376 8.722656 8.289063 3.492188 2.183594 36.207032 11.777344 25.742188 25.304687zm127.796875 61.496094c10.476563 10.476563 81.136719 57.578125 81.136719 115.164063 0 57.574219-51.472656 55.832031-66.296875 54.082031 16.574219 13.957031 79.382812 11.347656 79.382812-54.082031 0-57.585938-81.132812-115.164063-91.601562-120.398438-10.464844-5.230469-13.085938-5.230469-2.621094 5.234375zm0 0" fill="#fcd116"/><path d="m364.582031 368.488281 10.9375 37.550781h37.785157l-29.832032 22.957032 10.9375 36.507812-29.828125-22.949218-29.824219 21.898437 10.9375-35.457031-29.835937-22.957032h36.792969zm0 0" fill="#fff"/><path d="m250.546875 576.824219 10.9375 37.546875h37.78125l-29.832031 22.957031 10.9375 36.507813-29.824219-22.949219-29.835937 21.902343 10.9375-35.460937-29.824219-22.957031h36.789062zm0 0" fill="#fff"/><path d="m301.699219 497.070312 5.46875 18.773438h18.898437l-14.917968 11.476562 5.46875 18.253907-14.917969-11.476563-14.90625 10.953125 5.46875-17.730469-14.917969-11.476562h18.390625zm0 0" fill="#fff"/><path d="m250.546875 232.414062 10.9375 37.558594h37.78125l-29.832031 22.949219 10.9375 36.503906-29.824219-22.949219-29.835937 21.910157 10.9375-35.464844-29.824219-22.949219h36.789062zm0 0" fill="#fff"/><path d="m135.960938 378.90625 10.9375 37.546875h37.785156l-29.832032 22.960937 10.9375 36.503907-29.828124-22.945313-29.832032 21.898438 10.9375-35.457032-29.828125-22.960937h36.792969zm0 0" fill="#fff"/></g></svg>

<?xml version="1.0" encoding="UTF-8"?>
<svg xmlns="http://www.w3.org/2000/svg" xmlns:xlink="http://www.w3.org/1999/xlink" viewBox="0 0 1000 750" version="1.1">
<g id="surface920">
<rect x="0" y="0" width="1000" height="750" style="fill:rgb(0%,0%,0%);fill-opacity:1;stroke:none;"/>
<path style=" stroke:none;fill-rule:evenodd;fill:rgb(80.783081%,6.666565%,14.901733%);fill-opacity:1;" d="M 0 0 L 1000 0 L 1000 750 Z M 0 0 "/>
<path style=" stroke:none;fill-rule:evenodd;fill:rgb(98.822021%,81.959534%,8.627319%);fill-opacity:1;" d="M 619.125 217.914062 C 611.734375 227.449219 594.253906 208.308594 573.324219 207.878906 C 552.386719 207.4375 537.546875 227.9375 531.445312 234.921875 C 525.339844 241.902344 505.710938 278.539062 506.144531 282.460938 C 506.582031 286.394531 518.359375 271.558594 522.722656 268.945312 C 523.160156 274.175781 517.921875 280.28125 519.230469 282.03125 C 520.539062 283.773438 534.496094 271.558594 539.296875 271.128906 C 540.609375 274.617188 536.675781 278.101562 537.988281 283.339844 C 539.730469 285.082031 547.582031 274.617188 552.816406 272.4375 C 553.695312 276.359375 548.023438 283.773438 551.074219 288.574219 C 553.253906 289.007812 566.339844 273.738281 570.703125 271.996094 C 575.066406 270.246094 568.523438 286.394531 570.703125 287.703125 C 574.625 285.082031 586.839844 271.128906 590.769531 269.378906 C 594.695312 267.636719 590.332031 287.265625 592.074219 287.265625 C 596.875 283.773438 609.089844 267.195312 610.398438 264.582031 C 611.703125 261.960938 609.089844 289.886719 622.609375 304.710938 C 636.132812 319.546875 656.632812 336.554688 658.8125 336.554688 C 661.433594 331.753906 657.941406 321.722656 660.121094 322.160156 C 666.226562 328.703125 677.570312 338.296875 680.191406 338.296875 C 682.804688 338.296875 678.441406 327.832031 681.933594 327.832031 C 688.917969 334.375 708.976562 360.109375 748.234375 371.882812 C 745.621094 364.46875 739.949219 357.925781 739.511719 354.433594 C 742.132812 354.875 751.292969 359.238281 753.035156 358.796875 C 754.777344 358.367188 733.835938 332.625 735.148438 329.140625 C 739.949219 328.703125 742.132812 331.753906 743.871094 329.574219 C 741.691406 326.082031 723.371094 305.582031 723.371094 300.789062 C 723.371094 295.988281 729.042969 301.660156 730.785156 300.789062 C 732.535156 299.910156 723.8125 281.589844 725.554688 279.410156 C 727.296875 277.230469 746.492188 291.1875 751.285156 291.1875 C 756.085938 291.1875 752.597656 274.175781 754.777344 273.308594 C 756.957031 272.429688 773.105469 282.460938 776.585938 282.460938 C 780.078125 282.460938 779.640625 275.046875 780.949219 275.917969 C 782.257812 276.796875 820.207031 314.746094 807.121094 359.238281 C 794.035156 391.082031 767.863281 408.089844 729.476562 394.132812 C 731.65625 397.621094 752.164062 414.632812 774.40625 408.527344 C 796.65625 402.417969 823.699219 384.96875 820.644531 341.351562 C 817.59375 297.738281 803.199219 291.625 801.015625 285.082031 C 798.835938 278.539062 804.507812 286.824219 809.300781 288.574219 C 814.105469 290.316406 808.429688 279.410156 807.121094 274.617188 C 805.808594 269.816406 821.515625 284.644531 825.441406 285.953125 C 829.371094 287.265625 816.285156 250.1875 812.355469 247.566406 C 808.429688 244.953125 816.285156 248.445312 818.894531 249.316406 C 821.515625 250.1875 794.90625 208.746094 789.242188 208.746094 C 783.570312 208.746094 794.035156 206.566406 797.085938 206.566406 C 800.144531 206.566406 766.558594 179.523438 760.890625 179.523438 C 755.214844 179.523438 773.097656 172.542969 774.847656 172.101562 C 777.898438 172.542969 736.019531 149.863281 698.511719 172.542969 C 696.328125 170.800781 716.179688 157.054688 716.828125 151.171875 C 717.050781 149.640625 710.289062 146.371094 709.847656 144.628906 C 709.417969 142.878906 720.320312 137.644531 720.753906 133.726562 C 718.140625 130.234375 713.335938 131.542969 710.726562 130.671875 C 710.066406 127.398438 719.882812 119.328125 719.011719 115.835938 C 718.359375 113.875 711.15625 113.226562 709.417969 114.535156 C 707.667969 115.835938 713.996094 105.371094 712.90625 102.320312 C 712.035156 101.007812 708.546875 101.878906 705.054688 102.75 C 702.871094 102.320312 716.390625 83.558594 713.777344 80.941406 C 711.15625 78.328125 674.519531 100.136719 660.992188 124.558594 C 647.476562 148.992188 657.941406 168.621094 656.203125 176.902344 C 654.453125 185.199219 652.269531 193.480469 646.597656 193.480469 C 640.933594 193.480469 627.847656 184.757812 623.484375 180.394531 C 619.125 176.035156 618.246094 172.980469 612.140625 171.230469 C 606.039062 169.488281 592.074219 174.722656 586.839844 175.164062 C 581.609375 175.59375 561.109375 171.230469 559.796875 172.542969 C 558.488281 173.851562 579.867188 181.707031 584.660156 184.320312 C 589.460938 186.9375 589.898438 190.429688 593.382812 192.609375 C 596.875 194.792969 629.589844 204.386719 619.125 217.914062 Z M 746.921875 279.410156 C 757.398438 289.886719 828.058594 336.988281 828.058594 394.574219 C 828.058594 452.148438 776.585938 450.40625 761.761719 448.65625 C 778.335938 462.613281 841.144531 460.003906 841.144531 394.574219 C 841.144531 336.988281 760.011719 279.410156 749.542969 274.175781 C 739.078125 268.945312 736.457031 268.945312 746.921875 279.410156 Z M 746.921875 279.410156 "/>
<path style=" stroke:none;fill-rule:evenodd;fill:rgb(99.998474%,99.998474%,99.998474%);fill-opacity:1;" d="M 364.582031 368.488281 L 375.519531 406.039062 L 413.304688 406.039062 L 383.472656 428.996094 L 394.410156 465.503906 L 364.582031 442.554688 L 334.757812 464.453125 L 345.695312 428.996094 L 315.859375 406.039062 L 352.652344 406.039062 Z M 364.582031 368.488281 "/>
<path style=" stroke:none;fill-rule:evenodd;fill:rgb(99.998474%,99.998474%,99.998474%);fill-opacity:1;" d="M 250.546875 576.824219 L 261.484375 614.371094 L 299.265625 614.371094 L 269.433594 637.328125 L 280.371094 673.835938 L 250.546875 650.886719 L 220.710938 672.789062 L 231.648438 637.328125 L 201.824219 614.371094 L 238.613281 614.371094 Z M 250.546875 576.824219 "/>
<path style=" stroke:none;fill-rule:evenodd;fill:rgb(99.998474%,99.998474%,99.998474%);fill-opacity:1;" d="M 301.699219 497.070312 L 307.167969 515.84375 L 326.066406 515.84375 L 311.148438 527.320312 L 316.617188 545.574219 L 301.699219 534.097656 L 286.792969 545.050781 L 292.261719 527.320312 L 277.34375 515.84375 L 295.734375 515.84375 Z M 301.699219 497.070312 "/>
<path style=" stroke:none;fill-rule:evenodd;fill:rgb(99.998474%,99.998474%,99.998474%);fill-opacity:1;" d="M 250.546875 232.414062 L 261.484375 269.972656 L 299.265625 269.972656 L 269.433594 292.921875 L 280.371094 329.425781 L 250.546875 306.476562 L 220.710938 328.386719 L 231.648438 292.921875 L 201.824219 269.972656 L 238.613281 269.972656 Z M 250.546875 232.414062 "/>
<path style=" stroke:none;fill-rule:evenodd;fill:rgb(99.998474%,99.998474%,99.998474%);fill-opacity:1;" d="M 135.960938 378.90625 L 146.898438 416.453125 L 184.683594 416.453125 L 154.851562 439.414062 L 165.789062 475.917969 L 135.960938 452.972656 L 106.128906 474.871094 L 117.066406 439.414062 L 87.238281 416.453125 L 124.03125 416.453125 Z M 135.960938 378.90625 "/>
</g>
</svg>
